X:1
T:More Than a Friend to Me
T:More Than a Friend to Me
T:Mirian Christensen
T:Lizzie DeArmond & Charles Gabriel, 1908
T:Public Domain Courtesy of the Cyber Hymnal™
T:Public Domain Courtesy of the Cyber Hymnal™
C:Mirian Christensen
Z:Public Domain
Z:Courtesy of the Cyber Hymnal™
%%score ( 1 2 ) 3
L:1/8
Q:1/4=115
M:6/4
K:F
V:1 treble 
V:2 treble 
V:3 bass 
V:1
 [Fc]2 | [Fc]3 [FB] [FA]2 [FA]2 [CG]2 [CF]2 | [DF]3 [CE] [B,D]2 C4 C2 | %3
w: 1.~The|Sav- ior of sin- ners from|glo- ry came down, My|
w: 2.~When|bro- ken with sor- row, and|trem- bling with fear, To|
w: 3.~In|mo- ments of weak- ness up-|on Him I lean, His|
w: 4.~Some-|time in His beau- ty, thro’|won- der- ful grace, This|
 [DF]3 [DF] [DF]2 [FA]2 [FG]2 F2 | [EG]6- [EG]4 [Ec]2 | [Fc]3 [FB] [FA]2 [FA]2 [CG]2 [CF]2 | %6
w: hope of sal- va- tion to|be; * Was|scourged for my guilt, and was|
w: Him with my bur- den I|flee; * No|mat- ter what trou- bles or|
w: prom- ise my hope and my|plea; * So|gent- ly He leads, tho’ His|
w: King of all kings I shall|see; * And|oh, ’twill be hea- ven to|
 [DF]3 [CE] [B,D]2 C4 C2 | [=B,F]3 [B,E] [B,F]2 [CA]4 [CG]2 | [CF]6- [CF]4 ||"^Refrain" [Fc]2 | %10
w: mocked with a crown— He’s|more than a friend to|me. *||
w: tri- als ap- pear— He’s|more than a friend to|me. *||
w: hand is un- seen— He’s|more than a friend to|me. *||
w: look on His face— He’s|more than a friend to|me. *||
 [Fc]3 [FB] [FA]2 [FA]6 | [_EA]3 [EG] [EF]2 [DF]4 [B,D]2 | C3 [CF] [CF]2 [FA]4 [Fc]2 | %13
w: |||
w: |||
w: |||
w: |||
 [EG]6- [EG]4 [Ec]2 | [Fc]3 [FB] [FA]2 [FA]3 [FG] [_EF]2 | %15
w: ||
w: ||
w: ||
w: ||
 [DF]3 [CE] [B,D]2 !fermata![DB]4 [B,D]2 | [A,C]3 [CF] [FA]2 [EA]4 [CG]2 | [CF]6- [CF]4 |] %18
w: |||
w: |||
w: |||
w: |||
V:2
 x2 | x12 | x6 C4 C2 | x10 F2 | x12 | x12 | x6 C4 C2 | x12 | x10 || x2 | x12 | x12 | C3 x9 | x12 | %14
 x12 | x12 | x12 | x10 |] %18
V:3
 [F,A,]2 | [F,A,]3 [F,D] [F,C]2 [F,C]2 [F,B,]2 [F,A,]2 | [B,,B,]3 [B,,B,] F,2 [F,,F,A,]4 [F,A,]2 | %3
w: ~|~ ~ ~ ~ ~ ~|~ ~ ~ ~ ~|
 [D,A,]3 [D,A,] [D,A,]2 [G,,=B,]2 [G,,B,]2 [G,,B,]2 | [C,C]6- [C,C]4 [C,B,]2 | %5
w: ~ ~ ~ ~ ~ ~|~ * ~|
 [F,A,]3 [F,D] [F,C]2 [F,C]2 [F,B,]2 [F,A,]2 | [B,,B,]3 [B,,B,] [B,,F,]2 [F,,F,A,]4 [F,A,]2 | %7
w: ~ ~ ~ ~ ~ ~|~ ~ ~ ~ ~|
 [D,G,]3 [D,G,] [D,G,]2 [C,F,]4 [C,B,]2 | [F,,F,A,]6- [F,,F,A,]4 || [F,A,]2 | %10
w: ~ ~ ~ ~ ~|~ *|He’s|
 [F,A,]3 [F,C] [F,C]2 [F,C]6 | [F,C]3 [F,B,] [F,A,]2 [B,,B,]4 [B,,F,]2 | %12
w: more than a friend,|more than a friend, He’s|
 [F,A,]3 [F,A,] [F,A,]2 [F,C]4 [A,,C]2 | [C,C]6- [C,C]4 [C,B,]2 | %14
w: more than a friend to|me; * This|
 [F,A,]3 [F,D] [F,C]2 [F,C]3 [F,B,] [F,A,]2 | %15
w: Sav- ior of sin- ners, this|
 [B,,B,]3 [B,,B,] [B,,F,]2 !fermata![B,,F,]4 [B,,F,]2 | [C,F,]3 [C,A,] [C,C]2 [C,C]4 [C,B,]2 | %17
w: King of all kings, Is|more than a friend to|
 [F,,A,]6- [F,,A,]4 |] %18
w: me. *|

